Numix-Light/16/status/indicator-keyboard-Ku.svg

<?xml version="1.0" encoding="UTF-8" standalone="no"?>
<svg
   xmlns:dc="http://purl.org/dc/elements/1.1/"
   xmlns:cc="http://creativecommons.org/ns#"
   xmlns:rdf="http://www.w3.org/1999/02/22-rdf-syntax-ns#"
   xmlns:svg="http://www.w3.org/2000/svg"
   xmlns="http://www.w3.org/2000/svg"
   xmlns:sodipodi="http://sodipodi.sourceforge.net/DTD/sodipodi-0.dtd"
   xmlns:inkscape="http://www.inkscape.org/namespaces/inkscape"
   viewBox="0 0 16 16"
   id="svg2"
   version="1.1"
   inkscape:version="0.91 r13725"
   sodipodi:docname="indicator-keyboard-Ku.svg">
  <metadata
     id="metadata13">
    <rdf:RDF>
      <cc:Work
         rdf:about="">
        <dc:format>image/svg+xml</dc:format>
        <dc:type
           rdf:resource="http://purl.org/dc/dcmitype/StillImage" />
      </cc:Work>
    </rdf:RDF>
  </metadata>
  <defs
     id="defs11" />
  <sodipodi:namedview
     pagecolor="#ffffff"
     bordercolor="#666666"
     borderopacity="1"
     objecttolerance="10"
     gridtolerance="10"
     guidetolerance="10"
     inkscape:pageopacity="0"
     inkscape:pageshadow="2"
     inkscape:window-width="640"
     inkscape:window-height="480"
     id="namedview9"
     showgrid="false"
     inkscape:zoom="14.75"
     inkscape:cx="8"
     inkscape:cy="8"
     inkscape:window-x="65"
     inkscape:window-y="24"
     inkscape:window-maximized="0"
     inkscape:current-layer="svg2" />
  <path
     style="fill:#353535;fill-opacity:1"
     d="M 1.5996094 0 C 0.71320937 2.9605947e-16 0 0.71320937 0 1.5996094 L 0 14.400391 C 2.9605947e-16 15.286791 0.71320937 16 1.5996094 16 L 14.400391 16 C 15.286791 16 16 15.286791 16 14.400391 L 16 1.5996094 C 16 0.71320937 15.286791 0 14.400391 0 L 1.5996094 0 z M 3.5332031 4.8359375 L 4.1445312 4.8359375 L 4.1445312 7.7441406 C 4.3725313 7.5401406 4.6243906 7.3050156 4.9003906 7.0410156 C 5.1823906 6.7710156 5.4585156 6.5024219 5.7285156 6.2324219 C 6.0045156 5.9624219 6.2639063 5.7030312 6.5039062 5.4570312 C 6.7439062 5.2110313 6.9360781 5.0039375 7.0800781 4.8359375 L 7.8164062 4.8359375 C 7.6424062 5.0219375 7.4335 5.2439531 7.1875 5.5019531 C 6.9415 5.7539531 6.6802969 6.0151562 6.4042969 6.2851562 C 6.1282969 6.5551563 5.8521719 6.8219375 5.5761719 7.0859375 C 5.3061719 7.3439375 5.0636562 7.5715313 4.8476562 7.7695312 C 5.0216562 7.8775312 5.2062969 8.0137813 5.4042969 8.1757812 C 5.6082969 8.3317812 5.8135781 8.5052656 6.0175781 8.6972656 C 6.2275781 8.8832656 6.4309063 9.0810156 6.6289062 9.2910156 C 6.8329063 9.4950156 7.0213125 9.7021094 7.1953125 9.9121094 C 7.3753125 10.12211 7.5358281 10.327391 7.6738281 10.525391 C 7.8178281 10.723391 7.9334375 10.906219 8.0234375 11.074219 L 7.3398438 11.074219 C 7.1358438 10.762219 6.9044844 10.452484 6.6464844 10.146484 C 6.3944844 9.8404842 6.1277031 9.5532031 5.8457031 9.2832031 C 5.5637031 9.0132031 5.2764219 8.7669219 4.9824219 8.5449219 C 4.6944219 8.3229219 4.4145312 8.1363281 4.1445312 7.9863281 L 4.1445312 11.074219 L 3.5332031 11.074219 L 3.5332031 4.8359375 z M 8.8398438 6.4199219 L 9.4238281 6.4199219 L 9.4238281 8.8417969 C 9.4238281 9.1717969 9.4480937 9.4497344 9.4960938 9.6777344 C 9.5440937 9.9057346 9.6224688 10.092328 9.7304688 10.236328 C 9.8384687 10.374328 9.9765315 10.476969 10.144531 10.542969 C 10.318531 10.602969 10.529391 10.632813 10.775391 10.632812 C 11.051391 10.632812 11.290141 10.617891 11.494141 10.587891 C 11.698141 10.557891 11.826859 10.529859 11.880859 10.505859 L 11.880859 6.4199219 L 12.466797 6.4199219 L 12.466797 10.912109 C 12.292797 10.960109 12.059625 11.014219 11.765625 11.074219 C 11.471625 11.134219 11.111547 11.164062 10.685547 11.164062 C 10.337547 11.164062 10.0465 11.111766 9.8125 11.009766 C 9.5785 10.907766 9.3881406 10.764125 9.2441406 10.578125 C 9.1001406 10.392125 8.9956875 10.168297 8.9296875 9.9042969 C 8.8696875 9.6402969 8.8398437 9.34925 8.8398438 9.03125 L 8.8398438 6.4199219 z "
     id="path4" />
</svg>

<svg xmlns="http://www.w3.org/2000/svg" viewBox="0 0 16 16">
 <path d="m 1.6 0 c -0.886 0 -1.6 0.713 -1.6 1.6 l 0 12.801 c 0 0.886 0.713 1.6 1.6 1.6 l 12.801 0 c 0.886 0 1.6 -0.713 1.6 -1.6 l 0 -12.801 c 0 -0.886 -0.713 -1.6 -1.6 -1.6 l -12.801 0 z m 1.934 4.836 l 0.611 0 l 0 2.908 c 0.228 -0.204 0.48 -0.439 0.756 -0.703 c 0.282 -0.27 0.558 -0.539 0.828 -0.809 c 0.276 -0.27 0.535 -0.529 0.775 -0.775 c 0.24 -0.246 0.432 -0.453 0.576 -0.621 l 0.736 0 c -0.174 0.186 -0.383 0.408 -0.629 0.666 c -0.246 0.252 -0.507 0.513 -0.783 0.783 c -0.276 0.27 -0.552 0.537 -0.828 0.801 c -0.27 0.258 -0.513 0.486 -0.729 0.684 c 0.174 0.108 0.359 0.244 0.557 0.406 c 0.204 0.156 0.409 0.329 0.613 0.521 c 0.21 0.186 0.413 0.384 0.611 0.594 c 0.204 0.204 0.392 0.411 0.566 0.621 c 0.18 0.21 0.341 0.415 0.479 0.613 c 0.144 0.198 0.26 0.381 0.35 0.549 l -0.684 0 c -0.204 -0.312 -0.435 -0.622 -0.693 -0.928 c -0.252 -0.306 -0.519 -0.593 -0.801 -0.863 c -0.282 -0.27 -0.569 -0.516 -0.863 -0.738 c -0.288 -0.222 -0.568 -0.409 -0.838 -0.559 l 0 3.088 l -0.611 0 l 0 -6.238 z m 5.307 1.584 l 0.584 0 l 0 2.422 c 0 0.33 0.024 0.608 0.072 0.836 c 0.048 0.228 0.126 0.415 0.234 0.559 c 0.108 0.138 0.246 0.241 0.414 0.307 c 0.174 0.06 0.385 0.09 0.631 0.09 c 0.276 0 0.515 -0.015 0.719 -0.045 c 0.204 -0.03 0.333 -0.058 0.387 -0.082 l 0 -4.086 l 0.586 0 l 0 4.492 c -0.174 0.048 -0.407 0.102 -0.701 0.162 c -0.294 0.06 -0.654 0.09 -1.08 0.09 c -0.348 0 -0.639 -0.052 -0.873 -0.154 c -0.234 -0.102 -0.424 -0.246 -0.568 -0.432 c -0.144 -0.186 -0.248 -0.41 -0.314 -0.674 c -0.06 -0.264 -0.09 -0.555 -0.09 -0.873 l 0 -2.611 z" style="fill:#353535;fill-opacity:1"/>
</svg>
